X: 172
T: Love Is a Tormenting Pain
N:"Tenderly" "collected by F. O'Neill"
B:O'Neill's 172
Z:Transcribed by henrik.norbeck@mailbox.swipnet.se
M:3/4
L:1/8
K:F
c2|d2 (c>d f2)|{E}F2 F2 (F/4G/4)A3/2|c2 (d>c) (AG)|A4 c2|
d2 (c>d f2)|{E}F2 F2 "#"~G2|{FG}A4 (G/4F/4E3/2)|F4:|
c2|c2 ">"c2 (d>e)|">"f4 ">"a2|">"f4 ">"e2|">"d4 ">"c2|
c2 (dc) (Ac)|d2 (c>d) (e>d)|(e2 c2) c2|c4 (3cde|
(f2 e2 d2)|(c2 B2 A2)|G2 (A>G F2)|A4 c2|
d2 (c>d f2)|F2 (F2 G2)|A4 G2|F4||


